X: 18997
T: Innocent Hare
R: jig
M: 6/8
K: Gmajor
|:D|G2G A2A|BAB c2c|d2d GAB|AGA G2:|
|:B|cec A2G|F2G A2B|cec A2G|F2E D2D|
G2G A2A|BAB c2c|d2d GAB|AGA G2:|

